X:1
T:Title
%%score { ( 1 3 ) | ( 2 4 ) }
L:1/8
M:4/4
K:Eb
V:1 treble nm="Grand Piano"
V:3 treble 
V:2 bass 
V:4 bass 
V:1
 z4 z2[Q:1/4=88] BB | c2 B>B [EG]2 [DF]2 | E6 EF | GGGG GcBG | [DF]6 GA | BBBB B2 AB | %6
 c6 [Ec][Ec] | [EB]3 [EG] [EG]2 [DF]2 |[M:3/4] E6 |[M:1/4] Bc |[M:4/4] G6 z2 | B6 z2 | cccc cBGE | %13
 [DF]6 z2 | GGGF E2 BB |[M:9/8] ccc d e2- e [Ec]2 |[M:4/4] [EB]2 [EG][EG] [DB][DA][DF][DF] | %17
[M:3/4] E6 |] %18
V:2
 z4 z2 [E,G,E][E,G,E] | [E,A,E]2 [E,G,E]>[E,G,E] [B,,B,]2 [B,,A,]2 | [E,G,]6 [E,G,][E,A,E] | %3
 [E,B,E][E,B,E][E,B,E][E,B,E] [E,B,E][E,A,E][E,G,E][E,B,E] | [B,,B,]6 [E,E][E,F,E] | %5
 [E,G,E][E,G,E][E,G,E][E,G,E] [E,G,E]2 [F,B,D][G,B,E] | [A,E]6 [A,,A,][A,,A,] | %7
 [B,,G,]3 [B,,B,] [B,,B,]2 [B,,A,]2 |[M:3/4] [E,G,]6 |[M:1/4] [E,G,E][E,B,E] |[M:4/4] E6 E,2 | %11
 E2- [E,E-][F,E-] [G,E]2 [G,B,E][G,B,E] | [A,E][A,E][A,E][A,E] [A,E][E,G,E][E,B,E][E,G,] | %13
 [B,,B,]2 B,,B,, B,,2 [E,G,][E,A,E] | [E,B,E][E,B,E][E,B,E][E,A,D] [E,G,]2 [E,G,E][E,G,E] | %15
[M:9/8] [A,E][A,E][A,E] [A,B,E] [A,CE]2- [A,CE] [A,,A,]2 | %16
[M:4/4] [B,,G,]2 [B,,B,][B,,B,] [B,,F,][B,,F,][B,,A,][B,,A,] |[M:3/4] [E,G,]6 |] %18
V:3
 x8 | x8 | x8 | x8 | x8 | x8 | x8 | x8 |[M:3/4] x6 |[M:1/4] x2 |[M:4/4] z2 B,B, B,B,[A,DF]E | %11
 z2 G,A, B,2 BB | x8 | z2 B,B, B,2 EF | x8 |[M:9/8] x9 |[M:4/4] x8 |[M:3/4] x6 |] %18
V:4
 x8 | x8 | x8 | x8 | x8 | x8 | x8 | x8 |[M:3/4] x6 |[M:1/4] x2 |[M:4/4] [E,B,]2 E,E, E,E, z G, | %11
 [E,G,]2 z2 z4 | x8 | x8 | x8 |[M:9/8] x9 |[M:4/4] x8 |[M:3/4] x6 |] %18

